16/actions/stroke-cap-round.svg

<svg xmlns="http://www.w3.org/2000/svg" viewBox="0 0 16 16">
  <defs id="defs3051">
    <style type="text/css" id="current-color-scheme">
      .ColorScheme-Text {
        color:#FFFFFF;
      }
      </style>
  </defs>
 <path style="fill:currentColor;fill-opacity:1;stroke:none" 
     d="m8 2c-2.77 0-5 2.23-5 5v7h4v-7c0-.554.446-1 1-1 .554 0 1 .446 1 1v7h4v-7c0-2.77-2.23-5-5-5m0 1c2.216 0 4 1.784 4 4v6h-2v-6c0-1.108-.892-2-2-2-1.108 0-2 .892-2 2v6h-2v-6c0-2.216 1.784-4 4-4"
     class="ColorScheme-Text"
     />
</svg>

<svg xmlns="http://www.w3.org/2000/svg" width="16" height="16" viewBox="0 0 16 16">
 <defs>
  <style id="current-color-scheme" type="text/css">
   .ColorScheme-Text { color:#565656; } .ColorScheme-Highlight { color:#5294e2; }
  </style>
 </defs>
 <path style="fill:currentColor" class="ColorScheme-Text" d="M 8 2 C 5.23 2 3 4.23 3 7 L 3 14 L 7 14 L 7 7 C 7 6.446 7.446 6 8 6 C 8.554 6 9 6.446 9 7 L 9 14 L 13 14 L 13 7 C 13 4.23 10.77 2 8 2 z M 8 3 C 10.216 3 12 4.784 12 7 L 12 13 L 10 13 L 10 7 C 10 5.892 9.108 5 8 5 C 6.892 5 6 5.892 6 7 L 6 13 L 4 13 L 4 7 C 4 4.784 5.784 3 8 3 z"/>
</svg>
